src/readability/readability-black.svg

<svg xmlns="http://www.w3.org/2000/svg" width="128" height="128"><path fill-rule="evenodd" clip-rule="evenodd" d="M84.42 64.44l-.001.012-1.097 9.872c-4.637-3.789-12.192-6.621-19.361-6.621-7.133 0-14.656 2.817-19.29 6.567l-1.09-9.819-.002-.012c-.007-3.022-1.472-5.679-3.704-7.382 1.285-12.189 11.557-21.696 24.086-21.696 12.549 0 22.833 9.54 24.09 21.757-2.188 1.706-3.623 4.334-3.631 7.322zm-2.438 21.153l1.218-9.55c-4.428-4.333-11.39-6.872-19.24-6.872-7.81 0-14.738 2.522-19.169 6.807l1.225 9.615h35.966zm-39.566 7.002c3.78 0 2.761-.572 2.761-4.351l-2.488-22.397-.001-.012c-.014-5.149-4.19-9.32-9.343-9.32-5.161 0-9.344 4.183-9.344 9.344 0 5.049 4.006 9.151 9.012 9.327l5.826 13.568c-.001 3.78-.203 3.841 3.577 3.841zm52.572-17.409c5.006-.176 9.012-4.279 9.012-9.327 0-5.161-4.184-9.344-9.344-9.344-5.153 0-9.329 4.17-9.343 9.32l-.001.012-2.488 22.397c0 3.78-1.019 4.395 2.761 4.395 3.779 0 3.577-.105 3.577-3.885l5.826-13.568z"/></svg>

<?xml version="1.0" encoding="UTF-8" standalone="no"?>
<!-- Created with Inkscape (http://www.inkscape.org/) -->

<svg
   xmlns:dc="http://purl.org/dc/elements/1.1/"
   xmlns:cc="http://creativecommons.org/ns#"
   xmlns:rdf="http://www.w3.org/1999/02/22-rdf-syntax-ns#"
   xmlns:svg="http://www.w3.org/2000/svg"
   xmlns="http://www.w3.org/2000/svg"
   xmlns:inkscape="http://www.inkscape.org/namespaces/inkscape"
   version="1.1"
   width="128"
   height="128"
   id="svg2">
  <metadata
     id="metadata10">
    <rdf:RDF>
      <cc:Work
         rdf:about="">
        <dc:format>image/svg+xml</dc:format>
        <dc:type
           rdf:resource="http://purl.org/dc/dcmitype/StillImage" />
      </cc:Work>
    </rdf:RDF>
  </metadata>
  <defs
     id="defs8" />
  <path
     d="m 84.42,64.44 -0.001,0.012 -1.097,9.872 C 78.685,70.535 71.13,67.703 63.961,67.703 c -7.133,0 -14.656,2.817 -19.29,6.567 l -1.09,-9.819 -0.002,-0.012 C 43.572,61.417 42.107,58.76 39.875,57.057 41.16,44.868 51.432,35.361 63.961,35.361 c 12.549,0 22.833,9.54 24.09,21.757 -2.188,1.706 -3.623,4.334 -3.631,7.322 z M 81.982,85.593 83.2,76.043 C 78.772,71.71 71.81,69.171 63.96,69.171 c -7.81,0 -14.738,2.522 -19.169,6.807 l 1.225,9.615 h 35.966 z m -39.566,7.002 c 3.78,0 2.761,-0.572 2.761,-4.351 L 42.689,65.847 42.688,65.835 c -0.014,-5.149 -4.19,-9.32 -9.343,-9.32 -5.161,0 -9.344,4.183 -9.344,9.344 0,5.049 4.006,9.151 9.012,9.327 l 5.826,13.568 c -10e-4,3.78 -0.203,3.841 3.577,3.841 z M 94.988,75.186 C 99.994,75.01 104,70.907 104,65.859 c 0,-5.161 -4.184,-9.344 -9.344,-9.344 -5.153,0 -9.329,4.17 -9.343,9.32 l -0.001,0.012 -2.488,22.397 c 0,3.78 -1.019,4.395 2.761,4.395 3.779,0 3.577,-0.105 3.577,-3.885 l 5.826,-13.568 z"
     inkscape:connector-curvature="0"
     id="path4"
     style="fill-rule:evenodd" />
</svg>
